gauge-display/icons/temp.svg

<svg xmlns="http://www.w3.org/2000/svg" xmlns:xlink="http://www.w3.org/1999/xlink" version="1.1" x="0px" y="0px" fill="#f08800" viewBox="0 0 50 62.5" enable-background="new 0 0 50 50" xml:space="preserve"><g><path d="M20.4,48.8c6.7,1.3,12.5-3.8,12.5-10.3c0-3.4-1.7-6.5-4.3-8.4V7.2c0-3.4-2.7-6.2-6.2-6.2c-3.4,0-6.2,2.8-6.2,6.2v22.9   c-3.1,2.3-4.9,6.2-4,10.6C13,44.7,16.3,48,20.4,48.8z M17.5,32l0.9-0.7v-24c0-2.2,1.8-3.9,3.9-3.9c2.2,0,4,1.8,4,3.9v24l0.9,0.7   c2.1,1.5,3.3,4,3.3,6.6c0,2.2-0.9,4.3-2.4,5.8c-1.6,1.5-3.6,2.4-5.8,2.4c-4.1,0-7.3-2.9-8-6.5C13.8,37,15,33.8,17.5,32z"/><path d="M22.4,44.4c1.6,0,3.1-0.6,4.2-1.7c1.1-1.1,1.7-2.6,1.7-4.2c0-4-3.4-5.3-4.3-6.1V15.5h-3.3v16.9c-0.7,0.8-5.1,2.4-4.1,7.3   C17.1,42.3,19.4,44.4,22.4,44.4z"/><path d="M36.9,7.8h-5.7v2.3h5.7c0.6,0,1.1-0.5,1.1-1.1C38.1,8.3,37.6,7.8,36.9,7.8z"/><path d="M35.8,15c0-0.6-0.5-1.1-1.1-1.1h-3.4v2.3h3.4C35.3,16.1,35.8,15.6,35.8,15z"/><path d="M38.1,21c0-0.6-0.5-1.1-1.1-1.1h-5.7v2.3h5.7C37.6,22.2,38.1,21.6,38.1,21z"/></g></svg>

<?xml version="1.0" encoding="UTF-8" standalone="no"?>
<svg
   xmlns:dc="http://purl.org/dc/elements/1.1/"
   xmlns:cc="http://creativecommons.org/ns#"
   xmlns:rdf="http://www.w3.org/1999/02/22-rdf-syntax-ns#"
   xmlns:svg="http://www.w3.org/2000/svg"
   xmlns="http://www.w3.org/2000/svg"
   xmlns:sodipodi="http://sodipodi.sourceforge.net/DTD/sodipodi-0.dtd"
   xmlns:inkscape="http://www.inkscape.org/namespaces/inkscape"
   version="1.1"
   x="0px"
   y="0px"
   viewBox="0 0 50 50"
   enable-background="new 0 0 50 50"
   xml:space="preserve"
   id="svg14"
   sodipodi:docname="temp.svg"
   width="50"
   height="50"
   style="fill:#95f6fd"
   inkscape:version="0.92.5 (2060ec1f9f, 2020-04-08)"><metadata
     id="metadata20"><rdf:RDF><cc:Work
         rdf:about=""><dc:format>image/svg+xml</dc:format><dc:type
           rdf:resource="http://purl.org/dc/dcmitype/StillImage" /><dc:title></dc:title></cc:Work></rdf:RDF></metadata><defs
     id="defs18" /><sodipodi:namedview
     pagecolor="#ffffff"
     bordercolor="#666666"
     borderopacity="1"
     objecttolerance="10"
     gridtolerance="10"
     guidetolerance="10"
     inkscape:pageopacity="0"
     inkscape:pageshadow="2"
     inkscape:window-width="1436"
     inkscape:window-height="629"
     id="namedview16"
     showgrid="false"
     inkscape:zoom="3.776"
     inkscape:cx="-18.034958"
     inkscape:cy="31.25"
     inkscape:window-x="117"
     inkscape:window-y="9"
     inkscape:window-maximized="0"
     inkscape:current-layer="svg14" /><g
     id="g12"
     transform="matrix(0.85811896,0,0,0.90069606,3.5518541,2.247609)"><path
       d="M 20.4,48.8 C 27.1,50.1 32.9,45 32.9,38.5 32.9,35.1 31.2,32 28.6,30.1 V 7.2 C 28.6,3.8 25.9,1 22.4,1 19,1 16.2,3.8 16.2,7.2 v 22.9 c -3.1,2.3 -4.9,6.2 -4,10.6 0.8,4 4.1,7.3 8.2,8.1 z M 17.5,32 18.4,31.3 v -24 c 0,-2.2 1.8,-3.9 3.9,-3.9 2.2,0 4,1.8 4,3.9 v 24 l 0.9,0.7 c 2.1,1.5 3.3,4 3.3,6.6 0,2.2 -0.9,4.3 -2.4,5.8 -1.6,1.5 -3.6,2.4 -5.8,2.4 -4.1,0 -7.3,-2.9 -8,-6.5 C 13.8,37 15,33.8 17.5,32 Z"
       id="path2"
       inkscape:connector-curvature="0" /><path
       d="m 22.4,44.4 c 1.6,0 3.1,-0.6 4.2,-1.7 1.1,-1.1 1.7,-2.6 1.7,-4.2 0,-4 -3.4,-5.3 -4.3,-6.1 V 15.5 h -3.3 v 16.9 c -0.7,0.8 -5.1,2.4 -4.1,7.3 0.5,2.6 2.8,4.7 5.8,4.7 z"
       id="path4"
       inkscape:connector-curvature="0" /><path
       d="m 36.9,7.8 h -5.7 v 2.3 h 5.7 C 37.5,10.1 38,9.6 38,9 38.1,8.3 37.6,7.8 36.9,7.8 Z"
       id="path6"
       inkscape:connector-curvature="0" /><path
       d="m 35.8,15 c 0,-0.6 -0.5,-1.1 -1.1,-1.1 h -3.4 v 2.3 h 3.4 c 0.6,-0.1 1.1,-0.6 1.1,-1.2 z"
       id="path8"
       inkscape:connector-curvature="0" /><path
       d="m 38.1,21 c 0,-0.6 -0.5,-1.1 -1.1,-1.1 h -5.7 v 2.3 H 37 c 0.6,0 1.1,-0.6 1.1,-1.2 z"
       id="path10"
       inkscape:connector-curvature="0" /></g></svg>
